src/asset/image/strand.svg

<svg width="20" height="20" viewBox="0 0 20 20" fill="none" xmlns="http://www.w3.org/2000/svg">
<path fill-rule="evenodd" clip-rule="evenodd" d="M4.07309 10.6808C4.11393 10.7841 4.19393 10.8666 4.29559 10.91C4.34809 10.9325 4.40476 10.9441 4.46059 10.9441C4.51309 10.9441 4.56476 10.9341 4.61476 10.915L6.55143 10.1466C6.65393 10.1058 6.73643 10.0258 6.77976 9.92413L7.08226 9.22497L7.78143 9.52747C7.88393 9.57163 7.99809 9.5733 8.10059 9.53247L11.5864 8.1508L13.9739 14.1758C12.1348 14.29 10.4606 14.9091 9.31476 15.9241C9.14309 16.0766 9.12643 16.34 9.27976 16.5125C9.36226 16.605 9.47643 16.6525 9.59143 16.6525C9.68976 16.6525 9.78809 16.6183 9.86809 16.5475C10.9639 15.5758 12.7098 14.9958 14.5448 14.9875C14.5514 14.9882 14.557 14.991 14.5627 14.9937C14.5691 14.9969 14.5755 15 14.5831 15C14.5978 15 14.6128 14.9961 14.6277 14.9922L14.6277 14.9922C14.6357 14.9901 14.6436 14.9881 14.6514 14.9866H19.5831C19.8131 14.9866 19.9998 14.8 19.9998 14.57C19.9998 14.34 19.8131 14.1533 19.5831 14.1533H14.8614L12.3606 7.84497L15.8473 6.46247C15.9498 6.42163 16.0323 6.34163 16.0756 6.23997L16.3781 5.54163L17.0773 5.8433C17.1789 5.8883 17.2931 5.88913 17.3964 5.8483L19.3331 5.08163C19.5464 4.99663 19.6514 4.75497 19.5664 4.54163L19.2598 3.76497C18.5073 1.86663 16.6981 0.820801 14.1656 0.820801C12.8581 0.820801 11.3948 1.1183 9.91143 1.66247L9.75143 1.25997C9.66559 1.0458 9.42393 0.943301 9.21059 1.02663C8.99643 1.11163 8.89226 1.35413 8.97726 1.56747L9.13476 1.96497C7.19476 2.79163 5.59643 3.92747 4.61309 5.1958C3.43893 6.71163 3.14559 8.33997 3.76559 9.90497L4.07309 10.6808ZM5.27226 5.70663C6.23059 4.4708 7.84643 3.3583 9.82476 2.57497C11.3448 1.97163 12.8464 1.65413 14.1656 1.65413C16.3331 1.65413 17.8664 2.51247 18.4856 4.07163L18.6398 4.45997L17.2498 5.0108L16.3273 4.61163C16.1164 4.5183 15.8706 4.61663 15.7798 4.82913L15.3806 5.7508L11.6689 7.2233H11.6673C11.6668 7.2233 11.6666 7.22351 11.6664 7.22372C11.6663 7.22383 11.6662 7.22394 11.6661 7.22402C11.6659 7.22409 11.6658 7.22413 11.6656 7.22413L7.9556 8.6958L7.0306 8.2958C6.8206 8.2033 6.57476 8.3008 6.48226 8.5133L6.0831 9.4358L4.69476 9.98664L4.54059 9.5983C3.90226 7.98663 4.58559 6.59247 5.27226 5.70663ZM18.3331 17.9166C18.3331 18.6208 19.0056 19.1666 19.5831 19.1666C19.8131 19.1666 19.9998 19.3533 19.9998 19.5833C19.9998 19.8133 19.8131 20 19.5831 20C18.9189 20 18.3039 19.6508 17.9164 19.1333C17.5289 19.6508 16.9139 20 16.2498 20C15.5856 20 14.9706 19.6508 14.5831 19.1333C14.1956 19.6508 13.5806 20 12.9164 20C12.2523 20 11.6373 19.6508 11.2498 19.1333C10.8623 19.6508 10.2473 20 9.58309 20C8.91893 20 8.30393 19.6508 7.91643 19.1333C7.52893 19.6508 6.91393 20 6.24976 20C5.58559 20 4.97059 19.6508 4.58309 19.1333C4.19559 19.6508 3.58059 20 2.91643 20C2.24143 20 1.61643 19.64 1.23059 19.1075C1.07393 19.3091 0.877261 19.4908 0.648095 19.645C0.459761 19.7725 0.199761 19.7241 0.0705947 19.5308C-0.0577386 19.34 -0.00607195 19.0808 0.184761 18.9533C0.498095 18.7425 0.833095 18.36 0.833095 17.9166C0.833095 17.6866 1.01976 17.5 1.24976 17.5C1.47976 17.5 1.66643 17.6866 1.66643 17.9166C1.66643 18.6208 2.33893 19.1666 2.91643 19.1666C3.49393 19.1666 4.16643 18.6208 4.16643 17.9166C4.16643 17.6866 4.3531 17.5 4.58309 17.5C4.81309 17.5 4.99976 17.6866 4.99976 17.9166C4.99976 18.6208 5.67226 19.1666 6.24976 19.1666C6.82726 19.1666 7.49976 18.6208 7.49976 17.9166C7.49976 17.6866 7.68643 17.5 7.91643 17.5C8.14643 17.5 8.33309 17.6866 8.33309 17.9166C8.33309 18.6208 9.00559 19.1666 9.58309 19.1666C10.1606 19.1666 10.8331 18.6208 10.8331 17.9166C10.8331 17.6866 11.0198 17.5 11.2498 17.5C11.4798 17.5 11.6664 17.6866 11.6664 17.9166C11.6664 18.6208 12.3389 19.1666 12.9164 19.1666C13.4939 19.1666 14.1664 18.6208 14.1664 17.9166C14.1664 17.6866 14.3531 17.5 14.5831 17.5C14.8131 17.5 14.9998 17.6866 14.9998 17.9166C14.9998 18.6208 15.6723 19.1666 16.2498 19.1666C16.8273 19.1666 17.4998 18.6208 17.4998 17.9166C17.4998 17.6866 17.6864 17.5 17.9164 17.5C18.1464 17.5 18.3331 17.6866 18.3331 17.9166Z" fill="#3E3832"/>
</svg>

<svg width="20" height="20" viewBox="0 0 20 20" fill="none" xmlns="http://www.w3.org/2000/svg"><path fill-rule="evenodd" clip-rule="evenodd" d="M4.073 10.68a.414.414 0 00.542.235l1.936-.768a.415.415 0 00.229-.223l.302-.699.7.302a.416.416 0 00.319.005l3.485-1.381 2.388 6.025c-1.84.114-3.513.733-4.66 1.748a.417.417 0 10.554.623c1.096-.971 2.842-1.551 4.677-1.56.006.001.012.004.018.007a.045.045 0 00.02.006.18.18 0 00.045-.008.368.368 0 01.023-.005h4.932a.417.417 0 000-.834h-4.722l-2.5-6.308 3.486-1.383a.415.415 0 00.229-.222l.302-.698.7.301a.412.412 0 00.318.005l1.937-.766a.416.416 0 00.233-.54l-.306-.777C18.507 1.867 16.698.821 14.166.821c-1.308 0-2.771.297-4.255.841l-.16-.402a.416.416 0 10-.774.307l.158.398c-1.94.827-3.539 1.962-4.522 3.23-1.174 1.517-1.467 3.145-.847 4.71l.307.776zm1.2-4.973C6.23 4.47 7.845 3.358 9.824 2.575c1.52-.603 3.021-.92 4.34-.92 2.168 0 3.701.857 4.32 2.417l.155.388-1.39.55-.923-.398a.414.414 0 00-.547.217l-.4.922-3.711 1.472h-.002v.001h-.001l-3.71 1.472-.925-.4a.416.416 0 00-.549.217l-.399.923-1.388.55-.154-.388c-.639-1.611.045-3.006.731-3.891zm13.06 12.21c0 .704.673 1.25 1.25 1.25a.417.417 0 010 .833c-.664 0-1.28-.35-1.667-.867-.387.518-1.002.867-1.666.867-.664 0-1.28-.35-1.667-.867-.387.518-1.002.867-1.667.867-.664 0-1.279-.35-1.666-.867-.388.518-1.003.867-1.667.867-.664 0-1.28-.35-1.667-.867-.387.518-1.002.867-1.666.867-.664 0-1.28-.35-1.667-.867-.387.518-1.002.867-1.667.867-.675 0-1.3-.36-1.685-.892a2.507 2.507 0 01-.583.537.415.415 0 11-.463-.692c.313-.21.648-.593.648-1.036a.417.417 0 01.833 0c0 .704.673 1.25 1.25 1.25.578 0 1.25-.546 1.25-1.25a.417.417 0 01.834 0c0 .704.672 1.25 1.25 1.25.577 0 1.25-.546 1.25-1.25a.417.417 0 01.833 0c0 .704.673 1.25 1.25 1.25.578 0 1.25-.546 1.25-1.25a.417.417 0 01.833 0c0 .704.673 1.25 1.25 1.25.578 0 1.25-.546 1.25-1.25a.417.417 0 01.834 0c0 .704.672 1.25 1.25 1.25.577 0 1.25-.546 1.25-1.25a.417.417 0 01.833 0z" fill="#3E3832"/></svg>
